Brand/Logo/SVG/GitcoinLogo.svg

<?xml version="1.0" encoding="UTF-8" standalone="no"?><!DOCTYPE svg PUBLIC "-//W3C//DTD SVG 1.1//EN" "http://www.w3.org/Graphics/SVG/1.1/DTD/svg11.dtd"><svg width="100%" height="100%" viewBox="0 0 653 477" version="1.1" xmlns="http://www.w3.org/2000/svg" xmlns:xlink="http://www.w3.org/1999/xlink" xml:space="preserve" xmlns:serif="http://www.serif.com/" style="fill-rule:evenodd;clip-rule:evenodd;stroke-linejoin:round;stroke-miterlimit:1.41421;"><g><path d="M48.376,355.16l35.433,0l0,2.833c0,6.442 -0.759,12.145 -2.277,17.106c-1.481,4.592 -3.981,8.887 -7.498,12.886c-7.961,8.96 -18.087,13.439 -30.38,13.439c-11.996,0 -22.272,-4.331 -30.823,-12.995c-8.555,-8.702 -12.831,-19.143 -12.831,-31.325c0,-12.441 4.35,-22.994 13.053,-31.659c8.699,-8.7 19.289,-13.051 31.768,-13.051c6.701,0 12.958,1.365 18.771,4.091c5.555,2.729 11.016,7.16 16.386,13.294l-9.22,8.83c-7.035,-9.368 -15.608,-14.053 -25.715,-14.053c-9.072,0 -16.681,3.13 -22.827,9.388c-6.147,6.146 -9.22,13.847 -9.22,23.104c0,9.553 3.424,17.422 10.276,23.605c6.404,5.739 13.347,8.608 20.827,8.608c6.368,0 12.088,-2.142 17.162,-6.426c5.072,-4.321 7.905,-9.491 8.497,-15.511l-21.382,0l0,-12.164Z" style="fill:#15003e;fill-rule:nonzero;"/><rect x="129.656" y="314.061" width="12.942" height="85.753" style="fill:#15003e;"/><path d="M216.437,326.224l0,73.59l-12.941,0l0,-73.59l-19.716,0l0,-12.164l52.317,0l0,12.164l-19.66,0Z" style="fill:#15003e;fill-rule:nonzero;"/><path d="M337.54,318.642l0,15.302c-7.479,-6.258 -15.218,-9.387 -23.216,-9.387c-8.812,0 -16.237,3.166 -22.27,9.498c-6.074,6.294 -9.109,13.996 -9.109,23.104c0,8.998 3.035,16.588 9.109,22.772c6.07,6.183 13.513,9.274 22.325,9.274c4.556,0 8.424,-0.739 11.609,-2.222c1.777,-0.739 3.618,-1.738 5.526,-2.997c1.906,-1.259 3.915,-2.779 6.026,-4.556l0,15.635c-7.405,4.203 -15.181,6.304 -23.327,6.304c-12.256,0 -22.716,-4.276 -31.381,-12.831c-8.626,-8.625 -12.939,-19.03 -12.939,-31.211c0,-10.923 3.609,-20.661 10.83,-29.216c8.887,-10.477 20.383,-15.717 34.49,-15.717c7.702,0 15.144,2.083 22.327,6.248" style="fill:#15003e;fill-rule:nonzero;"/><path d="M399.397,343.023c0,9.471 3.183,17.257 9.553,23.362c6.33,6.104 13.643,9.156 21.937,9.156c8.998,0 16.588,-3.108 22.772,-9.323c6.183,-6.288 9.276,-13.946 9.276,-22.973c0,-9.137 -3.056,-16.795 -9.165,-22.974c-6.073,-6.215 -13.589,-9.323 -22.55,-9.323c-8.923,0 -16.459,3.108 -22.605,9.323c-6.146,6.142 -9.218,13.726 -9.218,22.752m-13.053,-0.14c0,-12.069 4.424,-22.438 13.275,-31.102c8.811,-8.664 19.401,-12.995 31.769,-12.995c12.218,0 22.696,4.369 31.434,13.107c8.777,8.738 13.163,19.235 13.163,31.491c0,12.329 -4.406,22.79 -13.218,31.38c-8.849,8.628 -19.532,12.941 -32.046,12.941c-11.072,0 -21.013,-3.832 -29.825,-11.498c-9.701,-8.477 -14.552,-19.586 -14.552,-33.324" style="fill:#0fce7c;fill-rule:nonzero;"/><rect x="514.099" y="314.061" width="12.941" height="85.753" style="fill:#15003e;"/><path d="M577.218,399.814l0,-91.584l62.539,65.424l0,-59.593l12.94,0l0,90.974l-62.538,-65.259l0,60.038l-12.941,0Z" style="fill:#15003e;fill-rule:nonzero;"/><path d="M138.733,472.739l2.071,0c2.502,0 5.12,-0.748 5.12,-3.826c0,-3.049 -3.107,-3.681 -5.523,-3.681l-1.668,0l0,7.507Zm0,-9.665l0.69,0c2.56,0 4.66,-0.517 4.66,-3.624c0,-3.048 -2.071,-3.566 -4.602,-3.566l-0.748,0l0,7.19Zm-2.704,-9.606l2.646,0c4.085,0 7.939,1.064 7.939,5.954c0,1.582 -0.863,3.422 -2.33,4.113l0,0.058c2.56,0.459 4.344,2.962 4.344,5.493c0,4.343 -3.711,6.069 -7.537,6.069l-5.062,0l0,-21.687Z" style="fill:#15003e;fill-rule:nonzero;"/><path d="M161.453,453.468l0,12.799c0,3.538 1.064,6.817 5.235,6.817c4.17,0 5.235,-3.279 5.235,-6.817l0,-12.799l2.703,0l0,13.72c0,4.774 -2.963,8.427 -7.938,8.427c-4.976,0 -7.939,-3.653 -7.939,-8.427l0,-13.72l2.704,0Z" style="fill:#15003e;fill-rule:nonzero;"/><rect x="185.755" y="453.468" width="2.704" height="21.687" style="fill:#15003e;"/><path d="M202.695,472.681l6.587,0l0,2.474l-9.291,0l0,-21.687l2.704,0l0,19.213Z" style="fill:#15003e;fill-rule:nonzero;"/><path d="M221.015,472.681l0.949,0c5.523,0 10.298,-2.071 10.298,-8.37c0,-6.328 -4.775,-8.37 -10.298,-8.37l-0.949,0l0,16.74Zm-2.704,-19.213l4.487,0c6.645,0 12.167,3.508 12.167,10.728c0,7.392 -5.408,10.959 -12.253,10.959l-4.401,0l0,-21.687Z" style="fill:#15003e;fill-rule:nonzero;"/><path d="M258.691,453.468l3.106,0l5.321,9.262l5.322,-9.262l3.106,0l-7.077,12.253l0,9.434l-2.704,0l0,-9.434l-7.075,-12.253Z" style="fill:#15003e;fill-rule:nonzero;"/><path d="M303.386,464.311c0,-4.774 -3.566,-8.772 -8.658,-8.772c-5.091,0 -8.657,3.998 -8.657,8.772c0,4.947 3.969,8.773 8.657,8.773c4.689,0 8.658,-3.826 8.658,-8.773m2.704,0c0,6.443 -5.091,11.304 -11.362,11.304c-6.27,0 -11.361,-4.861 -11.361,-11.304c0,-6.212 5.148,-11.304 11.361,-11.304c6.213,0 11.362,5.092 11.362,11.304" style="fill:#15003e;fill-rule:nonzero;"/><path d="M318.512,453.468l0,12.799c0,3.538 1.064,6.817 5.235,6.817c4.17,0 5.235,-3.279 5.235,-6.817l0,-12.799l2.703,0l0,13.72c0,4.774 -2.963,8.427 -7.938,8.427c-4.976,0 -7.939,-3.653 -7.939,-8.427l0,-13.72l2.704,0Z" style="fill:#15003e;fill-rule:nonzero;"/><path d="M345.604,463.736l0.863,0c2.762,0 5.753,-0.518 5.753,-3.969c0,-3.394 -3.222,-3.883 -5.897,-3.883l-0.719,0l0,7.852Zm10.786,11.419l-3.279,0l-6.385,-9.175l-1.122,0l0,9.175l-2.704,0l0,-21.687l3.28,0c1.926,0 3.998,0.029 5.723,1.006c1.812,1.065 2.848,3.107 2.848,5.178c0,3.106 -2.071,5.695 -5.206,6.069l6.845,9.434Z" style="fill:#15003e;fill-rule:nonzero;"/><path d="M384.257,472.739l2.071,0c2.502,0 5.12,-0.748 5.12,-3.826c0,-3.049 -3.107,-3.681 -5.523,-3.681l-1.668,0l0,7.507Zm0,-9.665l0.69,0c2.56,0 4.66,-0.517 4.66,-3.624c0,-3.048 -2.071,-3.566 -4.602,-3.566l-0.748,0l0,7.19Zm-2.704,-9.606l2.646,0c4.085,0 7.939,1.064 7.939,5.954c0,1.582 -0.863,3.422 -2.33,4.113l0,0.058c2.56,0.459 4.344,2.962 4.344,5.493c0,4.343 -3.711,6.069 -7.536,6.069l-5.063,0l0,-21.687Z" style="fill:#15003e;fill-rule:nonzero;"/><path d="M424.143,458.311c0,-4.774 -3.566,-8.772 -8.658,-8.772c-5.091,0 -8.657,3.998 -8.657,8.772c0,4.947 3.969,8.773 8.657,8.773c4.689,0 8.658,-3.826 8.658,-8.773m2.704,0c0,6.443 -5.091,11.304 -11.362,11.304c-6.27,0 -11.361,-4.861 -11.361,-11.304c0,-6.212 5.148,-11.304 11.361,-11.304c6.213,0 11.362,5.092 11.362,11.304" style="fill:#0fce7c;fill-rule:nonzero;"/><path d="M438.269,453.468l0,12.799c0,3.538 1.064,6.817 5.235,6.817c4.17,0 5.235,-3.279 5.235,-6.817l0,-12.799l2.703,0l0,13.72c0,4.774 -2.963,8.427 -7.938,8.427c-4.976,0 -7.939,-3.653 -7.939,-8.427l0,-13.72l2.704,0Z" style="fill:#15003e;fill-rule:nonzero;"/><path d="M462.399,452.432l16.279,17.056l0,-16.02l2.704,0l0,22.578l-16.279,-17.056l0,16.165l-2.704,0l0,-22.723Z" style="fill:#15003e;fill-rule:nonzero;"/><path d="M498.55,475.155l-2.704,0l0,-19.213l-5.148,0l0,-2.474l13,0l0,2.474l-5.148,0l0,19.213Z" style="fill:#15003e;fill-rule:nonzero;"/><path d="M511.061,453.468l3.106,0l5.321,9.262l5.322,-9.262l3.106,0l-7.076,12.253l0,9.434l-2.704,0l0,-9.434l-7.075,-12.253Z" style="fill:#15003e;fill-rule:nonzero;"/><path d="M359.389,107.903l13.955,27.492l-10.589,44.961l-25.216,-20.601l4.419,-32.978l17.431,-18.874Z" style="fill:#fff;fill-rule:nonzero;"/><path d="M322.138,98.69c-2.902,0 -5.256,-2.354 -5.256,-5.256l0,-41.426c0,-2.903 2.354,-5.256 5.256,-5.256c2.902,0 5.256,2.353 5.256,5.256l0,41.426c0,2.902 -2.354,5.256 -5.256,5.256" style="fill:#15003e;fill-rule:nonzero;"/><path d="M330.57,98.69l-16.246,0c-2.902,0 -5.256,-2.354 -5.256,-5.256c0,-2.902 2.354,-5.256 5.256,-5.256l16.246,0c2.902,0 5.256,2.354 5.256,5.256c0,2.902 -2.354,5.256 -5.256,5.256" style="fill:#15003e;fill-rule:nonzero;"/><path d="M359.389,107.903l17.271,-16.278c-13.216,-13.216 -31.474,-21.39 -51.641,-21.39c-40.334,0 -73.031,32.697 -73.031,73.031c0,40.334 32.697,73.031 73.031,73.031c15.034,0 28.256,5.488 39.87,-2.3l14.455,2l-0.414,-23.465l-41.391,-32.777l8.899,-41.911l12.951,-9.941" style="fill:#fff;fill-rule:nonzero;"/><path d="M325.019,223.464c-44.222,0 -80.199,-35.977 -80.199,-80.198c0,-44.221 35.977,-80.199 80.199,-80.199c21.422,0 41.562,8.342 56.709,23.491l5.22,5.219l-22.642,21.342l-9.833,-10.432l11.602,-10.934c-11.623,-9.302 -25.952,-14.351 -41.056,-14.351c-36.318,0 -65.864,29.546 -65.864,65.864c0,36.317 29.546,65.863 65.864,65.863" style="fill:#15003e;fill-rule:nonzero;"/><path d="M365.275,182.266l-10.296,-9.974c7.581,-7.824 11.755,-18.132 11.755,-29.027c0,-11.372 -4.493,-22 -12.652,-29.925l-5.37,-5.216l5.759,-5.435l4.906,5.199l4.692,-4.83c10.963,10.648 17,24.927 17,40.207c0,14.639 -5.61,28.489 -15.794,39.001" style="fill:#0fce7c;fill-rule:nonzero;"/><path d="M308.53,143.266c0,-9.107 7.382,-16.489 16.489,-16.489c9.107,0 16.49,7.382 16.49,16.489c0,9.106 -7.383,16.489 -16.49,16.489c-9.107,0 -16.489,-7.383 -16.489,-16.489" style="fill:#eff4ee;fill-rule:nonzero;"/><path d="M325.019,133.944c-5.141,0 -9.322,4.182 -9.322,9.322c0,5.139 4.181,9.321 9.322,9.321c5.14,0 9.322,-4.182 9.322,-9.321c0,-5.14 -4.182,-9.322 -9.322,-9.322m0,32.978c-13.044,0 -23.657,-10.612 -23.657,-23.656c0,-13.044 10.613,-23.657 23.657,-23.657c13.044,0 23.657,10.613 23.657,23.657c0,13.044 -10.613,23.656 -23.657,23.656" style="fill:#15003e;fill-rule:nonzero;"/><path d="M376.66,91.624l-41.675,38.506" style="fill:#15003e;fill-rule:nonzero;"/><path d="M371.797,86.36l9.728,10.53l-41.676,38.505l-9.728,-10.529l41.676,-38.506Z" style="fill:#15003e;"/><path d="M332.799,157.806l29.957,22.55l16.174,12.176l0,30.932l-32.492,-1.565" style="fill:#fff;fill-rule:nonzero;"/><path d="M386.098,223.464l-62.381,0l0,-14.334l48.047,0l0,-13.022l-43.275,-32.575l8.621,-11.453l48.988,36.875l0,34.509Z" style="fill:#15003e;fill-rule:nonzero;"/><path d="M391.183,55.952l5.745,-5.745l5.745,5.745l-5.745,5.745l-5.745,-5.745Z" style="fill:#25e899;"/><path d="M366.487,28.258l2.747,-2.747l2.747,2.747l-2.747,2.747l-2.747,-2.747Z" style="fill:#25e899;"/><path d="M400.511,4.141c0,-2.287 -1.854,-4.141 -4.141,-4.141c-2.287,0 -4.141,1.854 -4.141,4.141c0,2.287 1.854,4.141 4.141,4.141c2.287,0 4.141,-1.854 4.141,-4.141" style="fill:#25e899;fill-rule:nonzero;"/><path d="M297.259,113.159c-2.902,0 -5.256,-2.354 -5.256,-5.256l0,-55.894c0,-2.903 2.354,-5.257 5.256,-5.257c2.902,0 5.256,2.354 5.256,5.257l0,55.894c0,2.902 -2.354,5.256 -5.256,5.256" style="fill:#15003e;fill-rule:nonzero;"/></g></svg>

<?xml version="1.0" encoding="UTF-8"?>
<svg width="653px" height="406px" viewBox="0 0 653 406" version="1.1" xmlns="http://www.w3.org/2000/svg" xmlns:xlink="http://www.w3.org/1999/xlink">
    <!-- Generator: Sketch 50.2 (55047) - http://www.bohemiancoding.com/sketch -->
    <title>Untitled</title>
    <desc>Created with Sketch.</desc>
    <defs></defs>
    <g id="Page-1" stroke="none" stroke-width="1" fill="none" fill-rule="evenodd">
        <path d="M48.376,355.16 L83.809,355.16 L83.809,357.993 C83.809,364.435 83.05,370.138 81.532,375.099 C80.051,379.691 77.551,383.986 74.034,387.985 C66.073,396.945 55.947,401.424 43.654,401.424 C31.658,401.424 21.382,397.093 12.831,388.429 C4.276,379.727 0,369.286 0,357.104 C0,344.663 4.35,334.11 13.053,325.445 C21.752,316.745 32.342,312.394 44.821,312.394 C51.522,312.394 57.779,313.759 63.592,316.485 C69.147,319.214 74.608,323.645 79.978,329.779 L70.758,338.609 C63.723,329.241 55.15,324.556 45.043,324.556 C35.971,324.556 28.362,327.686 22.216,333.944 C16.069,340.09 12.996,347.791 12.996,357.048 C12.996,366.601 16.42,374.47 23.272,380.653 C29.676,386.392 36.619,389.261 44.099,389.261 C50.467,389.261 56.187,387.119 61.261,382.835 C66.333,378.514 69.166,373.344 69.758,367.324 L48.376,367.324 L48.376,355.16 Z" id="Shape" fill="#15003E" fill-rule="nonzero"></path>
        <polygon id="Shape" fill="#15003E" points="129.656 314.061 142.598 314.061 142.598 399.814 129.656 399.814"></polygon>
        <polygon id="Shape" fill="#15003E" fill-rule="nonzero" points="216.437 326.224 216.437 399.814 203.496 399.814 203.496 326.224 183.78 326.224 183.78 314.06 236.097 314.06 236.097 326.224"></polygon>
        <path d="M337.54,318.642 L337.54,333.944 C330.061,327.686 322.322,324.557 314.324,324.557 C305.512,324.557 298.087,327.723 292.054,334.055 C285.98,340.349 282.945,348.051 282.945,357.159 C282.945,366.157 285.98,373.747 292.054,379.931 C298.124,386.114 305.567,389.205 314.379,389.205 C318.935,389.205 322.803,388.466 325.988,386.983 C327.765,386.244 329.606,385.245 331.514,383.986 C333.42,382.727 335.429,381.207 337.54,379.43 L337.54,395.065 C330.135,399.268 322.359,401.369 314.213,401.369 C301.957,401.369 291.497,397.093 282.832,388.538 C274.206,379.913 269.893,369.508 269.893,357.327 C269.893,346.404 273.502,336.666 280.723,328.111 C289.61,317.634 301.106,312.394 315.213,312.394 C322.915,312.394 330.357,314.477 337.54,318.642" id="Shape" fill="#15003E" fill-rule="nonzero"></path>
        <path d="M399.397,343.023 C399.397,352.494 402.58,360.28 408.95,366.385 C415.28,372.489 422.593,375.541 430.887,375.541 C439.885,375.541 447.475,372.433 453.659,366.218 C459.842,359.93 462.935,352.272 462.935,343.245 C462.935,334.108 459.879,326.45 453.77,320.271 C447.697,314.056 440.181,310.948 431.22,310.948 C422.297,310.948 414.761,314.056 408.615,320.271 C402.469,326.413 399.397,333.997 399.397,343.023 M386.344,342.883 C386.344,330.814 390.768,320.445 399.619,311.781 C408.43,303.117 419.02,298.786 431.388,298.786 C443.606,298.786 454.084,303.155 462.822,311.893 C471.599,320.631 475.985,331.128 475.985,343.384 C475.985,355.713 471.579,366.174 462.767,374.764 C453.918,383.392 443.235,387.705 430.721,387.705 C419.649,387.705 409.708,383.873 400.896,376.207 C391.195,367.73 386.344,356.621 386.344,342.883" id="Shape" fill="#0FCE7C" fill-rule="nonzero"></path>
        <polygon id="Shape" fill="#15003E" points="514.099 314.061 527.04 314.061 527.04 399.814 514.099 399.814"></polygon>
        <polygon id="Shape" fill="#15003E" fill-rule="nonzero" points="577.218 399.814 577.218 308.23 639.757 373.654 639.757 314.061 652.697 314.061 652.697 405.035 590.159 339.776 590.159 399.814"></polygon>
        <polygon id="Shape" fill="#FFFFFF" points="359.389 107.903 373.344 135.395 362.755 180.356 337.539 159.755 341.958 126.777"></polygon>
        <path d="M322.138,98.69 C319.236,98.69 316.882,96.336 316.882,93.434 L316.882,52.008 C316.882,49.105 319.236,46.752 322.138,46.752 C325.04,46.752 327.394,49.105 327.394,52.008 L327.394,93.434 C327.394,96.336 325.04,98.69 322.138,98.69" id="Shape" fill="#15003E"></path>
        <path d="M330.57,98.69 L314.324,98.69 C311.422,98.69 309.068,96.336 309.068,93.434 C309.068,90.532 311.422,88.178 314.324,88.178 L330.57,88.178 C333.472,88.178 335.826,90.532 335.826,93.434 C335.826,96.336 333.472,98.69 330.57,98.69" id="Shape" fill="#15003E"></path>
        <path d="M359.389,107.903 L376.66,91.625 C363.444,78.409 345.186,70.235 325.019,70.235 C284.685,70.235 251.988,102.932 251.988,143.266 C251.988,183.6 284.685,216.297 325.019,216.297 C340.053,216.297 353.275,221.785 364.889,213.997 L379.344,215.997 L378.93,192.532 L337.539,159.755 L346.438,117.844 L359.389,107.903 Z" id="Shape" fill="#FFFFFF"></path>
        <path d="M325.019,223.464 C280.797,223.464 244.82,187.487 244.82,143.266 C244.82,99.045 280.797,63.067 325.019,63.067 C346.441,63.067 366.581,71.409 381.728,86.558 L386.948,91.777 L364.306,113.119 L354.473,102.687 L366.075,91.753 C354.452,82.451 340.123,77.402 325.019,77.402 C288.701,77.402 259.155,106.948 259.155,143.266 C259.155,179.583 288.701,209.129 325.019,209.129" id="Shape" fill="#15003E"></path>
        <path d="M365.275,182.266 L354.979,172.292 C362.56,164.468 366.734,154.16 366.734,143.265 C366.734,131.893 362.241,121.265 354.082,113.34 L348.712,108.124 L354.471,102.689 L359.377,107.888 L364.069,103.058 C375.032,113.706 381.069,127.985 381.069,143.265 C381.069,157.904 375.459,171.754 365.275,182.266" id="Shape" fill="#0FCE7C"></path>
        <path d="M308.53,143.266 C308.53,134.159 315.912,126.777 325.019,126.777 C334.126,126.777 341.509,134.159 341.509,143.266 C341.509,152.372 334.126,159.755 325.019,159.755 C315.912,159.755 308.53,152.372 308.53,143.266" id="Shape" fill="#EFF4EE"></path>
        <path d="M325.019,133.944 C319.878,133.944 315.697,138.126 315.697,143.266 C315.697,148.405 319.878,152.587 325.019,152.587 C330.159,152.587 334.341,148.405 334.341,143.266 C334.341,138.126 330.159,133.944 325.019,133.944 M325.019,166.922 C311.975,166.922 301.362,156.31 301.362,143.266 C301.362,130.222 311.975,119.609 325.019,119.609 C338.063,119.609 348.676,130.222 348.676,143.266 C348.676,156.31 338.063,166.922 325.019,166.922" id="Shape" fill="#15003E"></path>
        <path d="M376.66,91.624 L334.985,130.13" id="Shape" fill="#15003E"></path>
        <polygon id="Shape" fill="#15003E" points="371.797 86.36 381.525 96.89 339.849 135.395 330.121 124.866"></polygon>
        <polyline id="Shape" fill="#FFFFFF" fill-rule="nonzero" points="332.799 157.806 362.756 180.356 378.93 192.532 378.93 223.464 346.438 221.899"></polyline>
        <polygon id="Shape" fill="#15003E" fill-rule="nonzero" points="386.098 223.464 323.717 223.464 323.717 209.13 371.764 209.13 371.764 196.108 328.489 163.533 337.11 152.08 386.098 188.955"></polygon>
        <polygon id="Shape" fill="#25E899" points="391.183 55.952 396.928 50.207 402.673 55.952 396.928 61.697"></polygon>
        <polygon id="Shape" fill="#25E899" points="366.487 28.258 369.234 25.511 371.981 28.258 369.234 31.005"></polygon>
        <path d="M400.511,4.141 C400.511,1.854 398.657,0 396.37,0 C394.083,0 392.229,1.854 392.229,4.141 C392.229,6.428 394.083,8.282 396.37,8.282 C398.657,8.282 400.511,6.428 400.511,4.141" id="Shape" fill="#25E899" fill-rule="nonzero"></path>
        <path d="M297.259,113.159 C294.357,113.159 292.003,110.805 292.003,107.903 L292.003,52.009 C292.003,49.106 294.357,46.752 297.259,46.752 C300.161,46.752 302.515,49.106 302.515,52.009 L302.515,107.903 C302.515,110.805 300.161,113.159 297.259,113.159" id="Shape" fill="#15003E" fill-rule="nonzero"></path>
    </g>
</svg>
